X:1
T:Violin Caprice No. 6 in G Minor
T:Violin Caprice No. 6 in G Minor
T:Op. 1, No. 6
T:Niccolò Paganini
C:Niccolò Paganini
%%score ( 1 2 )
L:1/8
Q:1/4=40
M:3/4
K:Bb
V:1 treble nm="Violin" snm="Vln."
V:2 treble 
V:1
"^Lento" d3 g^fe |"^simile e sempre legato" d3 dcB | A3 cAG | %3
 !///-!G/B/ !///-!G/B/ !///-!^F/A/ !///-!E/A/ !///-!D/G/ !///-!D/F/ |{/G,} d3 dee | e3 edd | %6
 c3 _dcB | !///-!A/d/ !///-!A/f/ !///-!B/f/ !///-!A/c/ !///-!B/d/ !///-!A/f/ | %8
 !///-!B/f/ !///-!B/^f/ B !///-!B/_d/"_cresc." !///-!d/=e/ !///-!e/g/ | %9
!f! fb!>(! B2 !///-!A/c/ !///-!E/A/!>)! |!mp! B3 FG_G | !>!_G2 FF=G_G | _G2 FBBc | cde=ffa | %14
 bbc'^c'"_cresc."=e'c' |!f! d'b f !///-!B/d/ !///-!A/c/ !///-!E/A/ | %16
"_dim." !///-!D/B/ !///-!D/=A/ !///-!D/_A/ !///-!E/G/ !///-!E/_G/ !///-!E/F/ | %17
 !///-!E/F/ !///-!E/F/ !///-!D/F/ !///-!D/F/ !///-!D/^F/ !///-!D/F/ :| %18
"_cresc." !///-!G/=B/ !///-!G/B/ !///-!G/B/ !///-!G/B/ !///-!A/c/ !///-!B/d/ | %19
 !///-!c/e/ !///-!d/f/ !///-!e/g/ !///-!e/g/ !///-!d/f/ !///-!c/e/ | %20
 !///-!=B/d/ !///-!B/d/ !///-!B/d/ !///-!F/A/ !///-!E/G/ !///-!D/F/ |!f! cdedcB | %22
{/A,} !///-!A/^c/ !///-!A/c/ !///-!A/c/ !///-!A/c/ !///-!=B/d/ !///-!c/=e/ | %23
 !///-!d/f/ !///-!=e/g/ !///-!f/a/ !///-!f/a/ !///-!e/g/ !///-!d/f/ | %24
 !///-!^c/=e/ !///-!c/e/ !///-!c/e/ !///-!G/B/ !///-!F/A/ !///-!=E/G/ |!f! d=efedc | !>!c2 =B_BBB | %27
 ed_dc_cB | !>!_d2 cd!f!cc | f=e_ed_dc | !>!e2 dedd | gfe!f!cec | fed!f!BdB | edc!f!AcA | %34
 dc B !///-!B/d/ !///-!B/d/ !///-!B/^c/ | %35
!f! !///-!d/^f/ !///-!d/f/ !///-!g/b/ !///-!b/d'/ !///-!a/c'/ !///-!g/b/ | %36
 !///-!^f/a/ !///-!e/g/ !///-!d/f/ !///-!c/e/ !///-!B/d/ !///-!G/B/ | %37
"^smorz." !///-!^F/A/ !///-!E/G/ !///-!D/F/ !///-!C/E/ !///-!B,/D/ !///-!A,/C/ | %38
!8va(!{/G} d'3 g'^f'e' | d'3 d'c'b!8va)! | a3 c'ag | b2 aag^f | !>!=f2 =e_ede | e2 eedd | %44
 e^cdB=cA | !///-!G/B/ !///-!B/d/ !///-!G/B/ !///-!B/d/ !///-!=B/d/ !///-!d/f/ | %46
!>(! !///-!e/g/ !///-!c/e/ !///-!B/d/ !///-!G/B/ !///-!A/c/ !///-!^F/A/!>)! |!p! GF=E_E !>!^F2 | %48
 GF=E_E !>!^F2 |!p! !>!GB!>!GB!>!GB |"^morendo" G2 G2 G2 | G2 G2 !fermata!G !fermata!z |] %52
V:2
 (12:8:12G/8B/8G/8B/8G/8B/8G/8B/8G/8B/8G/8B/8 (12:8:12G/8B/8G/8B/8G/8B/8G/8B/8G/8B/8G/8B/8 (12:8:12G/8B/8G/8B/8G/8B/8G/8B/8G/8B/8G/8B/8 (12:8:12G/8e/8G/8e/8G/8e/8G/8e/8G/8e/8G/8e/8 (12:8:12G/8d/8G/8d/8G/8d/8G/8d/8G/8d/8G/8d/8 (12:8:12G/8c/8G/8c/8G/8c/8G/8c/8G/8c/8G/8c/8 | %1
 !///-!G/B/ !///-!G/B/ !///-!G/B/ !///-!=F/A/ !///-!E/G/ !///-!D/F/ | %2
 !///-!C/E/ !///-!C/E/ !///-!C/E/ !///-!C/E/ !///-!^C/=E/ !///-!C/E/ | D3 =CB,A, | %4
 !///-!G/B/ !///-!G/B/ !///-!G/B/ !///-!G/=B/ !///-!G/c/ !///-!_G/c/ | %5
 !///-!F/c/ !///-!F/c/ !///-!F/c/ !///-!^F/c/ !///-!G/B/ !///-!=F/A/ | %6
 !///-!E/G/ !///-!E/G/ !///-!E/G/ !///-!E/G/ !///-!=E/G/ !///-!E/G/ | F!>!_ED!>!_GF!>!E | %8
 D2 !///-!E/G/ =EGB | !///-!B/=d/ !///-!d/f/ !///-!D/F/ !///-!D/F/ EC | %10
 !///-!B,/D/ !///-!B,/D/ !///-!B,/D/ !///-!B,/D/ !///-!B,/E/ !///-!B,/E/ | %11
 !///-!A,/E/ !///-!A,/E/ !///-!B,/D/ !///-!B,/D/ !///-!B,/E/ !///-!B,/E/ | %12
 !///-!A,/E/ !///-!A,/E/ !///-!B,/D/ !///-!D/_A/ !///-!E/=G/ !///-!=E/B/ | %13
 !///-!F/=A/ !///-!^F/A/ !///-!G/B/ !///-!A/_e/ !///-!B/d/ !///-!c/e/ | %14
 !///-!d/f/ !///-!e/g/ !///-!=e/g/ !///-!e/g/ !///-!g/b/ !///-!e/g/ | %15
 !///-!f/b/ !///-!d/f/ !///-!B/d/ F _EC | B,B,B,B,B,B, | B,2 B,2 A,2 :| G,3 G,G,G, | G,G,G,G,G,G, | %20
 G,3 G,G,G, | !///-!C/E/ !///-!D/F/ !///-!E/G/ !///-!D/F/ !///-!C/E/ !///-!B,/D/ | A2>x2AA | %23
 AAAAAA | A3 AAA | !///-!D/F/ !///-!=E/G/ !///-!F/A/ !///-!E/G/ !///-!D/F/ !///-!D/^F/ | %26
 !///-!D/G/ !///-!D/G/ !///-!D/G/ !///-!D/G/ !///-!D/G/ !///-!D/G/ | %27
 !///-!E/G/ !///-!E/=B/ !///-!E/_B/ !///-!E/=A/ !///-!D/_A/ !///-!E/G/ | %28
 !///-!=E/B/ !///-!E/B/ !///-!E/B/ !///-!E/B/ !///-!E/B/ !///-!E/G/ | %29
 !///-!F/A/ !///-!F/^c/ !///-!F/=c/ !///-!F/=B/ !///-!=E/_B/ !///-!F/A/ | %30
 !///-!^F/c/ !///-!F/c/ !///-!F/c/ !///-!F/c/ !///-!F/c/ !///-!F/A/ | %31
 !///-!G/=B/ !///-!G/B/ !///-!G/B/ !///-!C/E/ !///-!E/G/ !///-!C/E/ | %32
 !///-!F/A/ !///-!F/A/ !///-!F/B/ !///-!B,/D/ !///-!D/F/ !///-!B,/D/ | %33
 !///-!E/G/ !///-!E/G/ !///-!E/A/ !///-!A,/C/ !///-!C/E/ !///-!A,/C/ | %34
 !///-!D/^F/ !///-!D/F/ !///-!D/G/ =F EE | D2 DDDD | DDDDDD | DDxDDD | %38
!8va(! !///-!g/b/ !///-!g/b/ !///-!g/b/ !///-!g/e'/ !///-!g/d'/ !///-!g/c'/ | %39
 !///-!g/b/ !///-!g/b/ !///-!g/b/ !///-!f/a/ !///-!e/g/ !///-!d/f/!8va)! | %40
 !///-!c/e/ !///-!c/e/ !///-!c/e/ !///-!c/e/ !///-!c/e/ !///-!^c/=e/ | %41
 !///-!d/g/ !///-!d/g/ !///-!d/^f/ !///-!=c/f/ !///-!B/d/ !///-!A/c/ | %42
 !///-!_A/=B/ !///-!A/B/ !///-!G/=c/ !///-!G/c/ !///-!G/B/ !///-!G/c/ | %43
 !///-!^F/c/ !///-!F/c/ !///-!=F/c/ !///-!^F/c/ !///-!G/B/ !///-!=F/_A/ | %44
 !///-!E/G/ !///-!E/G/ !///-!D/B/ !///-!D/G/ !///-!D/A/ !///-!D/^F/ | G,G,G,G,G,G, | G,G,DDDD | %47
 !///-!G,/B,/ !///-!G,/=B,/ !///-!G,/C/ !///-!G,/C/ !///-!G,/A,/ !///-!G,/A,/ | %48
 !///-!G,/B,/ !///-!G,/=B,/ !///-!G,/C/ !///-!G,/C/ !///-!G,/A,/ !///-!G,/A,/ | %49
 !///-!G,/B,/ !///-!G,/D/ !///-!G,/B,/ !///-!G,/D/ !///-!G,/B,/ !///-!G,/D/ | %50
 !///-!G,/B,/ !///-!G,/B,/ !///-!G,/B,/ !///-!G,/B,/ !///-!G,/B,/ !///-!G,/B,/ | %51
 !///-!G,/=B,/ !///-!G,/B,/ !///-!G,/B,/ !///-!G,/B,/ !///-!G,/B,/ x |] %52

